Badges/Roblox-Styled/Original/link-my-works.svg

<svg width="106" height="32" viewBox="0 0 106 32" fill="none" xmlns="http://www.w3.org/2000/svg">
<g filter="url(#filter0_i_24_220)">
<rect width="106" height="32" rx="4" fill="#335FFF"/>
<path d="M21.5 15C21.6823 15 21.849 15.0443 22 15.1328C22.1562 15.2214 22.2786 15.3438 22.3672 15.5C22.4557 15.651 22.5 15.8177 22.5 16V21C22.5 21.1823 22.4557 21.349 22.3672 21.5C22.2786 21.6562 22.1562 21.7786 22 21.8672C21.849 21.9557 21.6823 22 21.5 22H10.5C10.3177 22 10.1484 21.9557 9.99219 21.8672C9.84115 21.7786 9.72135 21.6562 9.63281 21.5C9.54427 21.349 9.5 21.1823 9.5 21V16C9.5 15.8177 9.54427 15.651 9.63281 15.5C9.72135 15.3438 9.84115 15.2214 9.99219 15.1328C10.1484 15.0443 10.3177 15 10.5 15H21.5ZM21 12.5C21.1406 12.5 21.2578 12.5495 21.3516 12.6484C21.4505 12.7422 21.5 12.8594 21.5 13C21.5 13.1406 21.4505 13.2604 21.3516 13.3594C21.2578 13.4531 21.1406 13.5 21 13.5H11C10.8594 13.5 10.7396 13.4531 10.6406 13.3594C10.5469 13.2604 10.5 13.1406 10.5 13C10.5 12.8594 10.5469 12.7422 10.6406 12.6484C10.7396 12.5495 10.8594 12.5 11 12.5H21ZM19.5 10C19.6406 10 19.7578 10.0495 19.8516 10.1484C19.9505 10.2422 20 10.3594 20 10.5C20 10.6406 19.9505 10.7604 19.8516 10.8594C19.7578 10.9531 19.6406 11 19.5 11H12.5C12.3594 11 12.2396 10.9531 12.1406 10.8594C12.0469 10.7604 12 10.6406 12 10.5C12 10.3594 12.0469 10.2422 12.1406 10.1484C12.2396 10.0495 12.3594 10 12.5 10H19.5Z" fill="white"/>
<path d="M30.244 20H28.814V12.3H31.344L32.84 18.449H33.016L34.534 12.3H37.064V20H35.634V14.038H35.458L34.05 20H31.85L30.42 14.038H30.244V20ZM39.5218 22.2C39.1258 22.2 38.7848 22.112 38.5208 22.024V20.737C38.8728 20.847 39.1258 20.902 39.4668 20.902C39.9398 20.902 40.2148 20.66 40.3908 20.22L40.4788 20H40.2478L38.0148 14.236H39.5878L40.9628 18.064H41.1388L42.4808 14.236H44.0428L41.8318 20.176C41.2598 21.705 40.5448 22.2 39.5218 22.2ZM51.0857 20H48.7097L47.1477 12.3H48.8197L49.7987 18.174H49.9747L51.0747 12.3H53.4507L54.5507 18.174H54.7267L55.7057 12.3H57.3777L55.8157 20H53.4397L52.3507 13.95H52.1747L51.0857 20ZM60.5932 20.11C58.8442 20.11 57.7442 18.9 57.7442 17.118C57.7442 15.336 58.8442 14.126 60.5932 14.126C62.3422 14.126 63.4422 15.336 63.4422 17.118C63.4422 18.9 62.3422 20.11 60.5932 20.11ZM60.6042 18.812C61.4402 18.812 62.0122 18.196 62.0122 17.118C62.0122 16.04 61.4402 15.424 60.6042 15.424C59.7682 15.424 59.1742 16.04 59.1742 17.118C59.1742 18.196 59.7682 18.812 60.6042 18.812ZM65.9914 20H64.5834V14.236H65.9914V15.05L66.1674 15.116C66.4864 14.489 67.0144 14.126 67.6964 14.126C67.8614 14.126 68.0374 14.148 68.1914 14.181V15.6C67.9714 15.523 67.6964 15.468 67.3444 15.468C66.7394 15.468 66.2334 15.842 65.9914 16.348V20ZM74.0902 14.236L72.0772 16.92V17.052L74.0902 20H72.4292L70.7352 17.569H70.4602V20H69.0522V12.19H70.4602V16.392H70.7352L72.3302 14.236H74.0902ZM76.801 20.11C75.811 20.11 75.063 19.758 74.414 19.23L75.162 18.218C75.635 18.625 76.174 18.9 76.801 18.9C77.395 18.9 77.714 18.702 77.714 18.339C77.714 17.976 77.45 17.866 77.01 17.778L76.273 17.624C75.272 17.415 74.678 16.92 74.678 15.974C74.678 14.83 75.503 14.126 76.834 14.126C77.67 14.126 78.429 14.379 79.023 14.918L78.242 15.886C77.813 15.534 77.351 15.336 76.812 15.336C76.405 15.336 76.042 15.49 76.042 15.82C76.042 16.084 76.218 16.26 76.779 16.381L77.593 16.557C78.462 16.744 79.111 17.195 79.111 18.152C79.111 19.384 78.198 20.11 76.801 20.11Z" fill="white"/>
<path d="M89.625 11.1875C89.7812 11.1875 89.9141 11.2422 90.0234 11.3516C90.1328 11.4609 90.1875 11.5938 90.1875 11.75C90.1875 11.9062 90.1328 12.0391 90.0234 12.1484C89.9141 12.2578 89.7812 12.3125 89.625 12.3125H86.0625V20.1875H93.9375V16.625C93.9375 16.4688 93.9922 16.3359 94.1016 16.2266C94.2109 16.1172 94.3438 16.0625 94.5 16.0625C94.6562 16.0625 94.7891 16.1172 94.8984 16.2266C95.0078 16.3359 95.0625 16.4688 95.0625 16.625V20.375C95.0625 20.543 95.0195 20.6992 94.9336 20.8438C94.8516 20.9883 94.7383 21.1016 94.5938 21.1836C94.4492 21.2695 94.293 21.3125 94.125 21.3125H85.875C85.707 21.3125 85.5508 21.2695 85.4062 21.1836C85.2617 21.1016 85.1465 20.9883 85.0605 20.8438C84.9785 20.6992 84.9375 20.543 84.9375 20.375V12.125C84.9375 11.957 84.9785 11.8008 85.0605 11.6562C85.1465 11.5117 85.2617 11.3984 85.4062 11.3164C85.5508 11.2305 85.707 11.1875 85.875 11.1875H89.625ZM94.5 11.1875C94.6562 11.1875 94.7891 11.2422 94.8984 11.3516C95.0078 11.4609 95.0625 11.5938 95.0625 11.75V14C95.0625 14.1562 95.0078 14.2891 94.8984 14.3984C94.7891 14.5078 94.6562 14.5625 94.5 14.5625C94.3438 14.5625 94.2109 14.5078 94.1016 14.3984C93.9922 14.2891 93.9375 14.1562 93.9375 14V13.1094L90.3984 16.6484C90.2891 16.7578 90.1562 16.8125 90 16.8125C89.8438 16.8125 89.7109 16.7578 89.6016 16.6484C89.4922 16.5391 89.4375 16.4062 89.4375 16.25C89.4375 16.0938 89.4922 15.9609 89.6016 15.8516L93.1406 12.3125H92.25C92.0938 12.3125 91.9609 12.2578 91.8516 12.1484C91.7422 12.0391 91.6875 11.9062 91.6875 11.75C91.6875 11.5938 91.7422 11.4609 91.8516 11.3516C91.9609 11.2422 92.0938 11.1875 92.25 11.1875H94.5Z" fill="white"/>
</g>
<defs>
<filter id="filter0_i_24_220" x="0" y="-2" width="106" height="34" filterUnits="userSpaceOnUse" color-interpolation-filters="sRGB">
<feFlood flood-opacity="0" result="BackgroundImageFix"/>
<feBlend mode="normal" in="SourceGraphic" in2="BackgroundImageFix" result="shape"/>
<feColorMatrix in="SourceAlpha" type="matrix" values="0 0 0 0 0 0 0 0 0 0 0 0 0 0 0 0 0 0 127 0" result="hardAlpha"/>
<feOffset dy="-2"/>
<feGaussianBlur stdDeviation="1.65"/>
<feComposite in2="hardAlpha" operator="arithmetic" k2="-1" k3="1"/>
<feColorMatrix type="matrix" values="0 0 0 0 1 0 0 0 0 1 0 0 0 0 1 0 0 0 0.11 0"/>
<feBlend mode="normal" in2="shape" result="effect1_innerShadow_24_220"/>
</filter>
</defs>
</svg>

<svg xmlns="http://www.w3.org/2000/svg" width="106" height="32" fill="none">
  <g filter="url(#a)">
    <rect width="106" height="32" fill="#335fff" rx="4"/>
    <path fill="#fff" d="M21.5 15a.97.97 0 0 1 .5.133.96.96 0 0 1 .367.367.97.97 0 0 1 .133.5v5a.97.97 0 0 1-.133.5.96.96 0 0 1-.367.367.97.97 0 0 1-.5.133h-11q-.274 0-.508-.133a1 1 0 0 1-.36-.367.97.97 0 0 1-.132-.5v-5a.97.97 0 0 1 .133-.5.97.97 0 0 1 .867-.5zm-.5-2.5q.21 0 .352.148A.47.47 0 0 1 21.5 13a.49.49 0 0 1-.5.5H11a.5.5 0 0 1-.36-.14.5.5 0 0 1-.14-.36q0-.21.14-.352A.5.5 0 0 1 11 12.5zM19.5 10q.21 0 .352.148A.47.47 0 0 1 20 10.5a.49.49 0 0 1-.5.5h-7a.5.5 0 0 1-.36-.14.5.5 0 0 1-.14-.36q0-.21.14-.352A.5.5 0 0 1 12.5 10zm10.744 10h-1.43v-7.7h2.53l1.496 6.149h.176l1.518-6.149h2.53V20h-1.43v-5.962h-.176L34.05 20h-2.2l-1.43-5.962h-.176zm9.278 2.2c-.396 0-.737-.088-1.001-.176v-1.287c.352.11.605.165.946.165.473 0 .748-.242.924-.682l.088-.22h-.231l-2.233-5.764h1.573l1.375 3.828h.176l1.342-3.828h1.562l-2.211 5.94c-.572 1.529-1.287 2.024-2.31 2.024M51.086 20H48.71l-1.562-7.7h1.672l.979 5.874h.176l1.1-5.874h2.376l1.1 5.874h.176l.979-5.874h1.672L55.816 20H53.44l-1.09-6.05h-.175zm9.507.11c-1.749 0-2.849-1.21-2.849-2.992s1.1-2.992 2.85-2.992c1.748 0 2.848 1.21 2.848 2.992s-1.1 2.992-2.849 2.992m.011-1.298c.836 0 1.408-.616 1.408-1.694s-.572-1.694-1.408-1.694-1.43.616-1.43 1.694.594 1.694 1.43 1.694M65.991 20h-1.408v-5.764h1.408v.814l.176.066c.32-.627.847-.99 1.53-.99.164 0 .34.022.494.055V15.6a2.5 2.5 0 0 0-.847-.132c-.605 0-1.11.374-1.353.88zm8.1-5.764-2.014 2.684v.132L74.09 20h-1.66l-1.695-2.431h-.275V20h-1.408v-7.81h1.408v4.202h.275l1.595-2.156zm2.71 5.874c-.99 0-1.738-.352-2.387-.88l.748-1.012c.473.407 1.012.682 1.639.682.594 0 .913-.198.913-.561s-.264-.473-.704-.561l-.737-.154c-1.001-.209-1.595-.704-1.595-1.65 0-1.144.825-1.848 2.156-1.848.836 0 1.595.253 2.189.792l-.781.968c-.429-.352-.891-.55-1.43-.55-.407 0-.77.154-.77.484 0 .264.176.44.737.561l.814.176c.869.187 1.518.638 1.518 1.595 0 1.232-.913 1.958-2.31 1.958m12.824-8.922q.235 0 .398.164.165.164.165.398t-.165.398a.54.54 0 0 1-.398.165h-3.562v7.874h7.874v-3.562q0-.235.165-.398a.54.54 0 0 1 .398-.165q.235 0 .398.165.165.164.165.398v3.75a.9.9 0 0 1-.13.469.9.9 0 0 1-.34.34.9.9 0 0 1-.468.128h-8.25a.9.9 0 0 1-.469-.128.93.93 0 0 1-.346-.34.93.93 0 0 1-.123-.469v-8.25q0-.252.124-.469a.93.93 0 0 1 .345-.34.9.9 0 0 1 .469-.129zm4.875 0q.235 0 .398.164.165.164.165.398V14q0 .235-.165.398a.54.54 0 0 1-.398.165.54.54 0 0 1-.398-.165.54.54 0 0 1-.165-.398v-.89l-3.539 3.538a.54.54 0 0 1-.398.165.54.54 0 0 1-.398-.165.54.54 0 0 1-.165-.398q0-.235.165-.398l3.539-3.54h-.891a.54.54 0 0 1-.398-.164.54.54 0 0 1-.165-.398q0-.235.165-.398a.54.54 0 0 1 .398-.165z"/>
  </g>
  <defs>
    <filter id="a" width="106" height="34" x="0" y="-2" color-interpolation-filters="sRGB" filterUnits="userSpaceOnUse">
      <feFlood flood-opacity="0" result="BackgroundImageFix"/>
      <feBlend in="SourceGraphic" in2="BackgroundImageFix" result="shape"/>
      <feColorMatrix in="SourceAlpha" result="hardAlpha" values="0 0 0 0 0 0 0 0 0 0 0 0 0 0 0 0 0 0 127 0"/>
      <feOffset dy="-2"/>
      <feGaussianBlur stdDeviation="1.65"/>
      <feComposite in2="hardAlpha" k2="-1" k3="1" operator="arithmetic"/>
      <feColorMatrix values="0 0 0 0 1 0 0 0 0 1 0 0 0 0 1 0 0 0 0.11 0"/>
      <feBlend in2="shape" result="effect1_innerShadow_24_220"/>
    </filter>
  </defs>
</svg>
